app/dist/common/images/yangtze-optical-fibre-and-cable-joint-stk-ltd-co.svg

<svg height="18" viewBox="0 0 18 18" width="18" xmlns="http://www.w3.org/2000/svg"><path d="m0 0h18v18h-18z" fill="#f0f3fa"/><path d="m3.43 9.32-1.43-2.32h1.22l.75 1.3.7-1.3h1.33l-1.43 2.32v1.68h-1.14z" fill="#dc1a73"/><path d="m7.5 11a2 2 0 1 0 0-4 2 2 0 0 0 0 4zm0-1.14a.86.86 0 1 0 0-1.72.86.86 0 0 0 0 1.72z" fill="#f2ca68" fill-rule="evenodd"/><path d="m10 7v4h1v-1.43h1v-1.14h-1v-.43h1.5v-1z" fill="#b1cc6b"/><path d="m16 10.21a2.04 2.04 0 0 1 -3.65-1.21c0-1.1.91-2 2.04-2 .65 0 1.23.3 1.6.77l-.83.82a.88.88 0 0 0 -.77-.46.87.87 0 0 0 -.89.87c0 .48.4.87.89.87.34 0 .63-.2.78-.47z" fill="#4aade8"/></svg>

<!-- by TradingView --><svg width="18" height="18" viewBox="0 0 18 18" xmlns="http://www.w3.org/2000/svg"><path fill="#F0F3FA" d="M0 0h18v18H0z"/><path d="M3.43 9.32 2 7h1.22l.75 1.3.7-1.3H6L4.57 9.32V11H3.43V9.32Z" fill="#DC1A73"/><path fill-rule="evenodd" d="M7.5 11a2 2 0 1 0 0-4 2 2 0 0 0 0 4Zm0-1.14a.86.86 0 1 0 0-1.72.86.86 0 0 0 0 1.72Z" fill="#F2CA68"/><path d="M10 7v4h1V9.57h1V8.43h-1V8h1.5V7H10Z" fill="#B1CC6B"/><path d="M16 10.21A2.04 2.04 0 0 1 12.35 9c0-1.1.91-2 2.04-2 .65 0 1.23.3 1.6.77l-.83.82a.88.88 0 0 0-.77-.46.87.87 0 0 0-.89.87c0 .48.4.87.89.87.34 0 .63-.2.78-.47l.83.81Z" fill="#4AADE8"/></svg>
